!!!!SEGMENT: pl-kk--kk-i-636--002-001_anonim--in-parasceve-lamentatio-1ma.krn
!!!cenid: 18xx:4535
!!!COM: Anonim
!!!COM-rismID: pe30004985
!!!CDT:
!!!CNT:
!!!OPR: In Parasceve
!!!OTL: Lamentatio 1ma
!!!OMV: 001
!!!PDT:
!!!AGN: Sacred
!!!YEC: Copyright 2022 Narodowy Instytut Fryderyka Chopina (https://polishscores.org)
!!!YEM: License CC-BY-4.0 (https://creativecommons.org/licenses/by/4.0)
!!!SMS-siglum: PL-Kk
!!!SMS-shelfmark: Kk.I.636
!!!SMS-variant:
!!!SMS-altvar:
!!!SMS-shelfwork: 002-001 M
!!!NIFC-rismSourceID: 1001216440
!!!NIFC-rismChildID: 1001216913
!!!NIFC-islandoraID: pl-kk:40786
!!!URL-pdf-islandora: https://repozytorium.nifc.pl/islandora/object/pl-kk%3A40786/datastream/PDF/view
!!!URL-scan: https://polish.musicsources.pl/pl/lokalizacje/galeria/rekopisy/7271/1 @EN{Scan on Polish Music Sources Website} @PL{Skany w portalu Dziedzictwo Muzyki Polskiej w otwartym dostępie}
!!!IIIF:
!!!ONB-nifc: UWAGA: Lamentacje i Responsoria In Parasceve na skanach: S – 8-14, A – 31-37,T – 53-60, B – 78-86. Każda Lamentacja i Responsorium to oddzielne pliki.
!!!AIN: 1 alto 1 bass 1 soprn 1 tenor
!!!key: A
**kern	**text	**kern	**text	**kern	**text	**kern	**text
*part4	*part4	*part3	*part3	*part2	*part2	*part1	*part1
*staff4	*staff4	*staff3	*staff3	*staff2	*staff2	*staff1	*staff1
*ICvox	*	*ICvox	*	*ICvox	*	*ICvox	*
*Ibass	*	*Itenor	*	*Ialto	*	*Isoprn	*
*I"Basso.	*	*I"Tenore.	*	*I"Alto.	*	*I"Soprano.	*
*I'B	*	*I'T	*	*I'A	*	*I'S	*
*clefF4	*	*clefC1	*	*clefC3	*	*clefC1	*
*k[f#c#g#]	*	*k[f#c#g#]	*	*k[f#c#g#]	*	*k[f#c#g#]	*
*A:	*	*A:	*	*A:	*	*A:	*
*M2/4	*	*M2/4	*	*M2/4	*	*M2/4	*
*all\right	*	*all\right	*	*all\right	*	*all\right	*
=1	=1	=1	=1	=1	=1	=1	=1
*2\right	*	*2\right	*	*2\right	*	*2\right	*
!!LO:TX:t=P:problem:all\right
!LO:TX:a:t=Tacet.	!	!	!	!LO:TX:a:t=Tacet.	!	!LO:TX:a:t=tacet.	!
2ryy	.	4a\	De	2ryy	.	2ryy	.
.	.	(4b\	la-	.	.	.	.
=2	=2	=2	=2	=2	=2	=2	=2
2ryy	.	8cc#\)	.	2ryy	.	2ryy	.
.	.	8cc#\	-men-	.	.	.	.
.	.	8cc#\	-ta-	.	.	.	.
.	.	8cc#\	-ti-	.	.	.	.
!	!	!LO:LB:g=original	!	!	!	!	!
=3	=3	=3	=3	=3	=3	=3	=3
2ryy	.	8cc#\	-o-	2ryy	.	2ryy	.
.	.	8cc#\	-ne,	.	.	.	.
.	.	4r	.	.	.	.	.
=4	=4	=4	=4	=4	=4	=4	=4
2ryy	.	4r	.	2ryy	.	2ryy	.
.	.	8cc#\	Je-	.	.	.	.
.	.	8cc#\	-re-	.	.	.	.
=5	=5	=5	=5	=5	=5	=5	=5
2ryy	.	4dd\	-mi-	2ryy	.	2ryy	.
.	.	8b\	-e	.	.	.	.
.	.	8b\	pro-	.	.	.	.
=6	=6	=6	=6	=6	=6	=6	=6
2ryy	.	4a\	-phe-	2ryy	.	2ryy	.
.	.	4g#\	.	.	.	.	.
=7	=7	=7	=7	=7	=7	=7	=7
2ryy	.	4a\	.	2ryy	.	2ryy	.
.	.	4b\	.	.	.	.	.
=8	=8	=8	=8	=8	=8	=8	=8
2ryy	.	2b\	-tae	2ryy	.	2ryy	.
!	!	!LO:LB:g=original	!	!	!	!	!
=9	=9	=9	=9	=9	=9	=9	=9
2ryy	.	2a;\	,	2ryy	.	2ryy	.
=10||	=10||	=10||	=10||	=10||	=10||	=10||	=10||
2ryy	.	4cc#\	Heth	2ryy	.	2ryy	.
.	.	4b\	.	.	.	.	.
=11	=11	=11	=11	=11	=11	=11	=11
2ryy	.	4a\	.	2ryy	.	2ryy	.
.	.	4b\	.	.	.	.	.
=12	=12	=12	=12	=12	=12	=12	=12
2ryy	.	2a;\	,	2ryy	.	2ryy	.
=13||	=13||	=13||	=13||	=13||	=13||	=13||	=13||
2ryy	.	4a\	co-	2ryy	.	2ryy	.
.	.	4b\	-gi-	.	.	.	.
=14	=14	=14	=14	=14	=14	=14	=14
2ryy	.	8cc#\	-ta-	2ryy	.	2ryy	.
.	.	8cc#\	-vit	.	.	.	.
.	.	16cc#\	Do-	.	.	.	.
.	.	16cc#\	-mi-	.	.	.	.
.	.	8cc#\	-nus	.	.	.	.
!	!	!LO:LB:g=original	!	!	!	!	!
=15	=15	=15	=15	=15	=15	=15	=15
2ryy	.	4r	.	2ryy	.	2ryy	.
.	.	8cc#\	dis-	.	.	.	.
.	.	8cc#\	-si-	.	.	.	.
=16	=16	=16	=16	=16	=16	=16	=16
2ryy	.	8cc#\	-pa-	2ryy	.	2ryy	.
.	.	8cc#\	-re	.	.	.	.
.	.	8cc#\	mu-	.	.	.	.
.	.	8cc#\	-rum	.	.	.	.
=17	=17	=17	=17	=17	=17	=17	=17
2ryy	.	8cc#\	fi-	2ryy	.	2ryy	.
.	.	16cc#\	-li-	.	.	.	.
.	.	16cc#\	-ae	.	.	.	.
.	.	8cc#\	Si-	.	.	.	.
.	.	8cc#\	-on,	.	.	.	.
!	!	!LO:LB:g=original	!	!	!	!	!
=18	=18	=18	=18	=18	=18	=18	=18
2ryy	.	8r	.	2ryy	.	2ryy	.
.	.	8cc#\	te-	.	.	.	.
.	.	8cc#\	-ten-	.	.	.	.
.	.	16cc#\	-dit	.	.	.	.
.	.	16cc#\	fu-	.	.	.	.
=19	=19	=19	=19	=19	=19	=19	=19
2ryy	.	8cc#\	-ni-	2ryy	.	2ryy	.
.	.	16cc#\	-cu-	.	.	.	.
.	.	16cc#\	-lum	.	.	.	.
.	.	8cc#\	su-	.	.	.	.
.	.	8cc#\	-um,	.	.	.	.
=20	=20	=20	=20	=20	=20	=20	=20
2ryy	.	8r	.	2ryy	.	2ryy	.
.	.	8cc#\	et	.	.	.	.
.	.	8cc#\	non	.	.	.	.
.	.	8cc#\	a-	.	.	.	.
!	!	!LO:LB:g=original	!	!	!	!	!
=21	=21	=21	=21	=21	=21	=21	=21
2ryy	.	8cc#\	-ver-	2ryy	.	2ryy	.
.	.	8cc#\	-tit	.	.	.	.
.	.	8cc#\	ma-	.	.	.	.
.	.	8cc#\	-num	.	.	.	.
=22	=22	=22	=22	=22	=22	=22	=22
2ryy	.	8cc#\	su-	2ryy	.	2ryy	.
.	.	8cc#\	-am,	.	.	.	.
.	.	4r	.	.	.	.	.
=23	=23	=23	=23	=23	=23	=23	=23
2ryy	.	4r	.	2ryy	.	2ryy	.
.	.	8cc#\	a	.	.	.	.
.	.	8cc#\	per-	.	.	.	.
=24	=24	=24	=24	=24	=24	=24	=24
2ryy	.	4dd\	-di-	2ryy	.	2ryy	.
.	.	4cc#\	-ti-	.	.	.	.
=25	=25	=25	=25	=25	=25	=25	=25
2ryy	.	8cc#\L	-o-	2ryy	.	2ryy	.
.	.	8b\J	.	.	.	.	.
.	.	4b\	-ne	.	.	.	.
!	!	!LO:LB:g=original	!	!	!	!	!
=26	=26	=26	=26	=26	=26	=26	=26
2ryy	.	4cc#\	,	2ryy	.	2ryy	.
.	.	4r	.	.	.	.	.
=27	=27	=27	=27	=27	=27	=27	=27
2ryy	.	4a\	lu-	2ryy	.	2ryy	.
.	.	(4b\	-xit-	.	.	.	.
=28	=28	=28	=28	=28	=28	=28	=28
2ryy	.	8cc#\)	.	2ryy	.	2ryy	.
.	.	8cc#\	-que	.	.	.	.
.	.	4r	.	.	.	.	.
=29	=29	=29	=29	=29	=29	=29	=29
2ryy	.	8cc#\	an-	2ryy	.	2ryy	.
.	.	16cc#\	-te-	.	.	.	.
.	.	16cc#\	-mu-	.	.	.	.
.	.	8cc#\	-ra-	.	.	.	.
.	.	8cc#\	-le,	.	.	.	.
!	!	!LO:LB:g=original	!	!	!	!	!
=30	=30	=30	=30	=30	=30	=30	=30
2ryy	.	8r	.	2ryy	.	2ryy	.
.	.	8cc#\	et	.	.	.	.
.	.	8cc#\	mu-	.	.	.	.
.	.	8cc#\	-rus	.	.	.	.
=31	=31	=31	=31	=31	=31	=31	=31
2ryy	.	8cc#\	pa-	2ryy	.	2ryy	.
.	.	8cc#\	-ri-	.	.	.	.
.	.	4cc#\	-ter	.	.	.	.
=32	=32	=32	=32	=32	=32	=32	=32
2ryy	.	4dd\	dis-	2ryy	.	2ryy	.
.	.	8b\	-si-	.	.	.	.
.	.	8b\	-pa-	.	.	.	.
=33	=33	=33	=33	=33	=33	=33	=33
2ryy	.	4a\	.	2ryy	.	2ryy	.
.	.	4g#\	.	.	.	.	.
!	!	!LO:LB:g=original	!	!	!	!	!
=34	=34	=34	=34	=34	=34	=34	=34
2ryy	.	4a\	.	2ryy	.	2ryy	.
.	.	8b\	.	.	.	.	.
.	.	8b\	-tus	.	.	.	.
=35	=35	=35	=35	=35	=35	=35	=35
2ryy	.	2b\	est	2ryy	.	2ryy	.
=36	=36	=36	=36	=36	=36	=36	=36
2ryy	.	2a;\	,	2ryy	.	2ryy	.
=37||	=37||	=37||	=37||	=37||	=37||	=37||	=37||
2ryy	.	4cc#\	Teth	2ryy	.	2ryy	.
.	.	4b\	.	.	.	.	.
=38	=38	=38	=38	=38	=38	=38	=38
2ryy	.	4a\	.	2ryy	.	2ryy	.
.	.	4b\	.	.	.	.	.
=39	=39	=39	=39	=39	=39	=39	=39
2ryy	.	2a;\	,	2ryy	.	2ryy	.
=40||	=40||	=40||	=40||	=40||	=40||	=40||	=40||
2ryy	.	4a\	De-	2ryy	.	2ryy	.
.	.	(4b\	-fi-	.	.	.	.
!	!	!LO:LB:g=original	!	!	!	!	!
=41	=41	=41	=41	=41	=41	=41	=41
2ryy	.	8cc#\)	.	2ryy	.	2ryy	.
.	.	8cc#\	-xae	.	.	.	.
.	.	4cc#\	sunt	.	.	.	.
=42	=42	=42	=42	=42	=42	=42	=42
2ryy	.	8r	.	2ryy	.	2ryy	.
.	.	8cc#\	in	.	.	.	.
.	.	8cc#\	ter-	.	.	.	.
.	.	8cc#\	-ra	.	.	.	.
=43	=43	=43	=43	=43	=43	=43	=43
2ryy	.	4dd\	por-	2ryy	.	2ryy	.
.	.	4cc#\	-tae	.	.	.	.
=44	=44	=44	=44	=44	=44	=44	=44
2ryy	.	4b\	e-	2ryy	.	2ryy	.
.	.	4b\	-jus	.	.	.	.
=45	=45	=45	=45	=45	=45	=45	=45
2ryy	.	4cc#\	,	2ryy	.	2ryy	.
.	.	4r	.	.	.	.	.
!	!	!LO:LB:g=original	!	!	!	!	!
=46	=46	=46	=46	=46	=46	=46	=46
2ryy	.	4a\	per-	2ryy	.	2ryy	.
.	.	(4b\	.	.	.	.	.
=47	=47	=47	=47	=47	=47	=47	=47
2ryy	.	8cc#\)	.	2ryy	.	2ryy	.
.	.	8cc#\	-di-	.	.	.	.
.	.	4cc#\	-dit	.	.	.	.
=48	=48	=48	=48	=48	=48	=48	=48
2ryy	.	8cc#\	et	2ryy	.	2ryy	.
.	.	8cc#\	con-	.	.	.	.
.	.	8cc#\	-tri-	.	.	.	.
.	.	8cc#\	-vit	.	.	.	.
=49	=49	=49	=49	=49	=49	=49	=49
2ryy	.	4r	.	2ryy	.	2ryy	.
.	.	8cc#\	vec-	.	.	.	.
.	.	8cc#\	-tes	.	.	.	.
!	!	!LO:LB:g=original	!	!	!	!	!
=50	=50	=50	=50	=50	=50	=50	=50
2ryy	.	8cc#\	e-	2ryy	.	2ryy	.
.	.	8cc#\	-jus	.	.	.	.
.	.	8cc#\	re-	.	.	.	.
.	.	8cc#\	-gem	.	.	.	.
=51	=51	=51	=51	=51	=51	=51	=51
2ryy	.	8cc#\	e-	2ryy	.	2ryy	.
.	.	8cc#\	-jus,	.	.	.	.
.	.	8r	.	.	.	.	.
.	.	8cc#\	et	.	.	.	.
=52	=52	=52	=52	=52	=52	=52	=52
2ryy	.	8cc#\	prin-	2ryy	.	2ryy	.
.	.	16cc#\	-ci-	.	.	.	.
.	.	16cc#\	-pes	.	.	.	.
.	.	8cc#\	e-	.	.	.	.
.	.	8cc#\	-jus	.	.	.	.
!	!	!LO:PB:g=original	!	!	!	!	!
=53	=53	=53	=53	=53	=53	=53	=53
2ryy	.	4dd\	in	2ryy	.	2ryy	.
.	.	8b\	gen-	.	.	.	.
.	.	8b\	-ti-	.	.	.	.
=54	=54	=54	=54	=54	=54	=54	=54
2ryy	.	2b\	-bus	2ryy	.	2ryy	.
=55	=55	=55	=55	=55	=55	=55	=55
2ryy	.	2a;\	,	2ryy	.	2ryy	.
=56||	=56||	=56||	=56||	=56||	=56||	=56||	=56||
2ryy	.	4a\	non	2ryy	.	2ryy	.
.	.	4b\	est	.	.	.	.
=57	=57	=57	=57	=57	=57	=57	=57
2ryy	.	8cc#\	lex	2ryy	.	2ryy	.
.	.	8r	.	.	.	.	.
.	.	8cc#\	et	.	.	.	.
.	.	8cc#\	pro-	.	.	.	.
!	!	!LO:LB:g=original	!	!	!	!	!
=58	=58	=58	=58	=58	=58	=58	=58
2ryy	.	8cc#\	-phe-	2ryy	.	2ryy	.
.	.	8cc#\	-tae	.	.	.	.
.	.	8cc#\	e-	.	.	.	.
.	.	8cc#\	-jus	.	.	.	.
=59	=59	=59	=59	=59	=59	=59	=59
2ryy	.	8r	.	2ryy	.	2ryy	.
.	.	8cc#\	non	.	.	.	.
.	.	8cc#\	in-	.	.	.	.
.	.	8cc#\	-ve-	.	.	.	.
=60	=60	=60	=60	=60	=60	=60	=60
2ryy	.	8cc#\	-ne-	2ryy	.	2ryy	.
.	.	8cc#\	-runt	.	.	.	.
.	.	8cc#\	vi-	.	.	.	.
.	.	8cc#\	-si-	.	.	.	.
=61	=61	=61	=61	=61	=61	=61	=61
2ryy	.	4dd\	-o-	2ryy	.	2ryy	.
.	.	4b\	-nem	.	.	.	.
!	!	!LO:LB:g=original	!	!	!	!	!
=62	=62	=62	=62	=62	=62	=62	=62
2ryy	.	4a\	a	2ryy	.	2ryy	.
.	.	4g#\	.	.	.	.	.
=63	=63	=63	=63	=63	=63	=63	=63
2ryy	.	4a\	Do-	2ryy	.	2ryy	.
.	.	8b\	.	.	.	.	.
.	.	8b\	-mi-	.	.	.	.
=64	=64	=64	=64	=64	=64	=64	=64
2ryy	.	2b\	-no	2ryy	.	2ryy	.
=65	=65	=65	=65	=65	=65	=65	=65
2ryy	.	2a;\	,	2ryy	.	2ryy	.
=66||	=66||	=66||	=66||	=66||	=66||	=66||	=66||
2ryy	.	4cc#\	Jod	2ryy	.	2ryy	.
.	.	4b\	.	.	.	.	.
=67	=67	=67	=67	=67	=67	=67	=67
2ryy	.	4a\	.	2ryy	.	2ryy	.
.	.	4b\	.	.	.	.	.
=68	=68	=68	=68	=68	=68	=68	=68
2ryy	.	2a;\	,	2ryy	.	2ryy	.
!	!	!LO:LB:g=original	!	!	!	!	!
=69||	=69||	=69||	=69||	=69||	=69||	=69||	=69||
2ryy	.	4a\	se-	2ryy	.	2ryy	.
.	.	(4b\	-de-	.	.	.	.
=70	=70	=70	=70	=70	=70	=70	=70
2ryy	.	4cc#\)	.	2ryy	.	2ryy	.
.	.	8cc#\	-runt	.	.	.	.
.	.	8cc#\	in	.	.	.	.
=71	=71	=71	=71	=71	=71	=71	=71
2ryy	.	8cc#\	ter-	2ryy	.	2ryy	.
.	.	8cc#\	-ra,	.	.	.	.
.	.	4r	.	.	.	.	.
=72	=72	=72	=72	=72	=72	=72	=72
2ryy	.	8r	.	2ryy	.	2ryy	.
.	.	8cc#\	con-	.	.	.	.
.	.	8cc#\	-ti-	.	.	.	.
.	.	8cc#\	-cu-	.	.	.	.
!	!	!LO:LB:g=original	!	!	!	!	!
=73	=73	=73	=73	=73	=73	=73	=73
2ryy	.	8cc#\	-e-	2ryy	.	2ryy	.
.	.	8cc#\	-runt	.	.	.	.
.	.	8cc#\	se-	.	.	.	.
.	.	8cc#\	-nes	.	.	.	.
=74	=74	=74	=74	=74	=74	=74	=74
2ryy	.	8.dd\	fi-	2ryy	.	2ryy	.
.	.	16cc#\	-li-	.	.	.	.
.	.	4cc#\	-ae	.	.	.	.
=75	=75	=75	=75	=75	=75	=75	=75
2ryy	.	4b\	Si-	2ryy	.	2ryy	.
.	.	4b\	-on	.	.	.	.
=76	=76	=76	=76	=76	=76	=76	=76
2ryy	.	4cc#\	,	2ryy	.	2ryy	.
.	.	4r	.	.	.	.	.
=77	=77	=77	=77	=77	=77	=77	=77
2ryy	.	4a\	con-	2ryy	.	2ryy	.
.	.	4b\	-sper-	.	.	.	.
!	!	!LO:LB:g=original	!	!	!	!	!
=78	=78	=78	=78	=78	=78	=78	=78
2ryy	.	8cc#\	-se-	2ryy	.	2ryy	.
.	.	8cc#\	-runt	.	.	.	.
.	.	4r	.	.	.	.	.
=79	=79	=79	=79	=79	=79	=79	=79
2ryy	.	8cc#\	ci-	2ryy	.	2ryy	.
.	.	16cc#\	-ne-	.	.	.	.
.	.	16cc#\	-re	.	.	.	.
.	.	8cc#\	ca-	.	.	.	.
.	.	16cc#\	-pi-	.	.	.	.
.	.	16cc#\	-ta	.	.	.	.
=80	=80	=80	=80	=80	=80	=80	=80
2ryy	.	8cc#\	su-	2ryy	.	2ryy	.
.	.	8cc#\	-a,	.	.	.	.
.	.	8r	.	.	.	.	.
.	.	8cc#\	ac-	.	.	.	.
!	!	!LO:LB:g=original	!	!	!	!	!
=81	=81	=81	=81	=81	=81	=81	=81
2ryy	.	8cc#\	-cin-	2ryy	.	2ryy	.
.	.	8cc#\	-cti	.	.	.	.
.	.	8cc#\	sunt	.	.	.	.
.	.	8cc#\	ci-	.	.	.	.
=82	=82	=82	=82	=82	=82	=82	=82
2ryy	.	16cc#\	-li-	2ryy	.	2ryy	.
.	.	16cc#\	-ci-	.	.	.	.
.	.	8cc#\	-is,	.	.	.	.
.	.	4r	.	.	.	.	.
=83	=83	=83	=83	=83	=83	=83	=83
2ryy	.	8cc#\	ab-	2ryy	.	2ryy	.
.	.	8cc#\	-je-	.	.	.	.
.	.	8cc#\	-ce-	.	.	.	.
.	.	16cc#\	-runt	.	.	.	.
.	.	16cc#\	in	.	.	.	.
!	!	!LO:LB:g=original	!	!	!	!	!
=84	=84	=84	=84	=84	=84	=84	=84
2ryy	.	8cc#\	ter-	2ryy	.	2ryy	.
.	.	8cc#\	-ram	.	.	.	.
.	.	4r	.	.	.	.	.
=85	=85	=85	=85	=85	=85	=85	=85
2ryy	.	8cc#\	ca-	2ryy	.	2ryy	.
.	.	16cc#\	-pi-	.	.	.	.
.	.	16cc#\	-ta	.	.	.	.
.	.	8cc#\	su-	.	.	.	.
.	.	8cc#\	-a,	.	.	.	.
=86	=86	=86	=86	=86	=86	=86	=86
2ryy	.	8.dd\	vir-	2ryy	.	2ryy	.
.	.	16b\	-gi-	.	.	.	.
.	.	8b\	-nes	.	.	.	.
.	.	8b\	Je-	.	.	.	.
=87	=87	=87	=87	=87	=87	=87	=87
2ryy	.	4a\	-ru-	2ryy	.	2ryy	.
.	.	4g#\	.	.	.	.	.
!	!	!LO:LB:g=original	!	!	!	!	!
=88	=88	=88	=88	=88	=88	=88	=88
2ryy	.	4a\	.	2ryy	.	2ryy	.
.	.	8b\	.	.	.	.	.
.	.	8b\	-sa-	.	.	.	.
=89	=89	=89	=89	=89	=89	=89	=89
2ryy	.	2b\	-lem	2ryy	.	2ryy	.
=90	=90	=90	=90	=90	=90	=90	=90
2ryy	.	2a;\	,	2ryy	.	2ryy	.
=91||	=91||	=91||	=91||	=91||	=91||	=91||	=91||
2ryy	.	4cc#\	Caph	2ryy	.	2ryy	.
.	.	4b\	.	.	.	.	.
=92	=92	=92	=92	=92	=92	=92	=92
2ryy	.	4a\	.	2ryy	.	2ryy	.
.	.	4b\	.	.	.	.	.
=93	=93	=93	=93	=93	=93	=93	=93
2ryy	.	2a;\	,	2ryy	.	2ryy	.
=94||	=94||	=94||	=94||	=94||	=94||	=94||	=94||
2ryy	.	4a\	De-	2ryy	.	2ryy	.
.	.	(4b\	-fe-	.	.	.	.
!	!	!LO:LB:g=original	!	!	!	!	!
=95	=95	=95	=95	=95	=95	=95	=95
2ryy	.	8cc#\)	-ce-	2ryy	.	2ryy	.
.	.	8cc#\	-runt	.	.	.	.
.	.	8r	.	.	.	.	.
.	.	8cc#\	pre	.	.	.	.
=96	=96	=96	=96	=96	=96	=96	=96
2ryy	.	8cc#\	la-	2ryy	.	2ryy	.
.	.	8cc#\	-cry-	.	.	.	.
.	.	4cc#\	-mis	.	.	.	.
=97	=97	=97	=97	=97	=97	=97	=97
2ryy	.	8.dd\	o-	2ryy	.	2ryy	.
.	.	16cc#\	-cu-	.	.	.	.
.	.	4cc#\	-li	.	.	.	.
=98	=98	=98	=98	=98	=98	=98	=98
2ryy	.	4b\	me-	2ryy	.	2ryy	.
.	.	4b\	-i	.	.	.	.
=99	=99	=99	=99	=99	=99	=99	=99
2ryy	.	4cc#\	,	2ryy	.	2ryy	.
.	.	4r	.	.	.	.	.
!	!	!LO:LB:g=original	!	!	!	!	!
=100	=100	=100	=100	=100	=100	=100	=100
2ryy	.	4a\	con-	2ryy	.	2ryy	.
.	.	4b\	-tur-	.	.	.	.
=101	=101	=101	=101	=101	=101	=101	=101
2ryy	.	8cc#\	-ba-	2ryy	.	2ryy	.
.	.	8cc#\	-ta	.	.	.	.
.	.	4cc#\	sunt	.	.	.	.
=102	=102	=102	=102	=102	=102	=102	=102
2ryy	.	8.dd\	vi-	2ryy	.	2ryy	.
.	.	16b\	-sce-	.	.	.	.
.	.	8b\	-ra	.	.	.	.
.	.	8b\	me-	.	.	.	.
=103	=103	=103	=103	=103	=103	=103	=103
2ryy	.	2b\	-a	2ryy	.	2ryy	.
=104	=104	=104	=104	=104	=104	=104	=104
2ryy	.	2a;\	,	2ryy	.	2ryy	.
!	!	!LO:LB:g=original	!	!	!	!	!
=105||	=105||	=105||	=105||	=105||	=105||	=105||	=105||
2ryy	.	4a\	ef-	2ryy	.	2ryy	.
.	.	(4b\	-fu-	.	.	.	.
=106	=106	=106	=106	=106	=106	=106	=106
2ryy	.	8cc#\)	.	2ryy	.	2ryy	.
.	.	8cc#\	-sum	.	.	.	.
.	.	8cc#\	est	.	.	.	.
.	.	8cc#\	in	.	.	.	.
=107	=107	=107	=107	=107	=107	=107	=107
2ryy	.	8cc#\	ter-	2ryy	.	2ryy	.
.	.	8cc#\	-ram	.	.	.	.
.	.	4r	.	.	.	.	.
!	!	!LO:TX:b:rj:t=V.S.	!	!	!	!	!
!	!	!LO:PB:g=original	!	!	!	!	!
=108	=108	=108	=108	=108	=108	=108	=108
2ryy	.	8cc#\	je-	2ryy	.	2ryy	.
.	.	8cc#\	-cur	.	.	.	.
.	.	8cc#\	me-	.	.	.	.
.	.	8cc#\	-um,	.	.	.	.
=109	=109	=109	=109	=109	=109	=109	=109
2ryy	.	4r	.	2ryy	.	2ryy	.
.	.	8cc#\	su-	.	.	.	.
.	.	16cc#\	-per	.	.	.	.
.	.	16cc#\	con-	.	.	.	.
=110	=110	=110	=110	=110	=110	=110	=110
2ryy	.	8cc#\	-tri-	2ryy	.	2ryy	.
.	.	8cc#\	-ti-	.	.	.	.
.	.	8cc#\	-o-	.	.	.	.
.	.	8cc#\	-ne	.	.	.	.
=111	=111	=111	=111	=111	=111	=111	=111
2ryy	.	4r	.	2ryy	.	2ryy	.
.	.	8cc#\	fi-	.	.	.	.
.	.	16cc#\	-li-	.	.	.	.
.	.	16cc#\	-ae	.	.	.	.
!	!	!LO:LB:g=original	!	!	!	!	!
=112	=112	=112	=112	=112	=112	=112	=112
2ryy	.	8.dd\	po-	2ryy	.	2ryy	.
.	.	16cc#\	-pu-	.	.	.	.
.	.	4cc#\	-li	.	.	.	.
=113	=113	=113	=113	=113	=113	=113	=113
2ryy	.	4b\	me-	2ryy	.	2ryy	.
.	.	4b\	-i	.	.	.	.
=114	=114	=114	=114	=114	=114	=114	=114
2ryy	.	4cc#\	,	2ryy	.	2ryy	.
.	.	4r	.	.	.	.	.
=115	=115	=115	=115	=115	=115	=115	=115
2ryy	.	4a\	cum	2ryy	.	2ryy	.
.	.	4b\	de-	.	.	.	.
=116	=116	=116	=116	=116	=116	=116	=116
2ryy	.	8cc#\	-fi-	2ryy	.	2ryy	.
.	.	16cc#\	-ce-	.	.	.	.
.	.	16cc#\	-ret	.	.	.	.
.	.	8cc#\	par-	.	.	.	.
.	.	16cc#\	-vu-	.	.	.	.
.	.	16cc#\	-lus	.	.	.	.
!	!	!LO:LB:g=original	!	!	!	!	!
=117	=117	=117	=117	=117	=117	=117	=117
2ryy	.	8r	.	2ryy	.	2ryy	.
.	.	8cc#\	et	.	.	.	.
.	.	8cc#\	lac-	.	.	.	.
.	.	8cc#\	-tens	.	.	.	.
=118	=118	=118	=118	=118	=118	=118	=118
2ryy	.	4r	.	2ryy	.	2ryy	.
.	.	8cc#\	in	.	.	.	.
.	.	8cc#\	pla-	.	.	.	.
=119	=119	=119	=119	=119	=119	=119	=119
2ryy	.	4dd\	-te-	2ryy	.	2ryy	.
.	.	4b\	-is	.	.	.	.
=120	=120	=120	=120	=120	=120	=120	=120
2ryy	.	4a\	op-	2ryy	.	2ryy	.
.	.	4g#\	.	.	.	.	.
=121	=121	=121	=121	=121	=121	=121	=121
2ryy	.	4a\	.	2ryy	.	2ryy	.
.	.	8b\	.	.	.	.	.
.	.	8b\	-pi-	.	.	.	.
!	!	!LO:LB:g=original	!	!	!	!	!
=122	=122	=122	=122	=122	=122	=122	=122
2ryy	.	2b\	-di	2ryy	.	2ryy	.
=123	=123	=123	=123	=123	=123	=123	=123
2ryy	.	2a;\	,	2ryy	.	2ryy	.
=124||	=124||	=124||	=124||	=124||	=124||	=124||	=124||
2ryy	.	4a\	Je-	2ryy	.	2ryy	.
.	.	(4b\	-ru-	.	.	.	.
=125	=125	=125	=125	=125	=125	=125	=125
2ryy	.	8cc#\)	.	2ryy	.	2ryy	.
.	.	8cc#\	-sa-	.	.	.	.
.	.	4cc#\	-lem	.	.	.	.
=126	=126	=126	=126	=126	=126	=126	=126
2ryy	.	4r	.	2ryy	.	2ryy	.
.	.	4cc#\	Je-	.	.	.	.
=127	=127	=127	=127	=127	=127	=127	=127
2ryy	.	4dd\	-ru-	2ryy	.	2ryy	.
.	.	(4cc#\	.	.	.	.	.
=128	=128	=128	=128	=128	=128	=128	=128
2ryy	.	8b\)	.	2ryy	.	2ryy	.
.	.	8b\	-sa-	.	.	.	.
.	.	(4b\	-lem	.	.	.	.
!	!	!LO:LB:g=original	!	!	!	!	!
=129	=129	=129	=129	=129	=129	=129	=129
2ryy	.	4cc#\)	,	2ryy	.	2ryy	.
.	.	4r	.	.	.	.	.
=130	=130	=130	=130	=130	=130	=130	=130
2ryy	.	4a\	con-	2ryy	.	2ryy	.
.	.	(4b\	-ver-	.	.	.	.
=131	=131	=131	=131	=131	=131	=131	=131
2ryy	.	8cc#\)	.	2ryy	.	2ryy	.
.	.	8cc#\	-te-	.	.	.	.
.	.	4cc#\	-re	.	.	.	.
=132	=132	=132	=132	=132	=132	=132	=132
2ryy	.	8r	.	2ryy	.	2ryy	.
.	.	8cc#\	ad	.	.	.	.
.	.	8cc#\	Do-	.	.	.	.
.	.	16cc#\	-mi-	.	.	.	.
.	.	16cc#\	-num	.	.	.	.
=133	=133	=133	=133	=133	=133	=133	=133
2ryy	.	4dd\	De-	2ryy	.	2ryy	.
.	.	4b\	-um	.	.	.	.
!	!	!LO:LB:g=original	!	!	!	!	!
=134	=134	=134	=134	=134	=134	=134	=134
2ryy	.	4a\	tu-	2ryy	.	2ryy	.
.	.	4g#\	.	.	.	.	.
=135	=135	=135	=135	=135	=135	=135	=135
2ryy	.	4a\	.	2ryy	.	2ryy	.
.	.	4b\	.	.	.	.	.
=136	=136	=136	=136	=136	=136	=136	=136
2ryy	.	2b\	-um	2ryy	.	2ryy	.
=137	=137	=137	=137	=137	=137	=137	=137
2ryy	.	2a;\	-.	2ryy	.	2ryy	.
==	==	==	==	==	==	==	==
*-	*-	*-	*-	*-	*-	*-	*-
!!!system-decoration: [(s1,s2,s3,s4)]
!!!RDF**kern: > = above
!!!RDF**kern: < = below
!!!RDF**kern: i = editorial accidental
!!!ENC: Anastazja Marusiak
!!!EED: Katarzyna Serwa
!!!END: 2023-11-16
!!!EEV: 2024-06-04
!!!YEM: Copyright © 2023 by [Copyright Holder]
